img/icone-proteina.svg

<svg width="48" height="48" viewBox="0 0 48 48" fill="none" xmlns="http://www.w3.org/2000/svg">
<path d="M10 48V46C10 41.3667 10.9667 37.6083 12.9 34.725C14.8333 31.8417 17.5 28.9333 20.9 26C17.5 23.0667 14.8333 20.1583 12.9 17.275C10.9667 14.3917 10 10.6333 10 6V4H14V6C14 6.36667 14.0083 6.70833 14.025 7.025C14.0417 7.34167 14.0667 7.66667 14.1 8H33.9C33.9333 7.66667 33.9583 7.34167 33.975 7.025C33.9917 6.70833 34 6.36667 34 6V4H38V6C38 10.6333 37.0333 14.3917 35.1 17.275C33.1667 20.1583 30.5 23.0667 27.1 26C30.5 28.9333 33.1667 31.8417 35.1 34.725C37.0333 37.6083 38 41.3667 38 46V48H34V46C34 45.6333 33.9917 45.2917 33.975 44.975C33.9583 44.6583 33.9333 44.3333 33.9 44H14.1C14.0667 44.3333 14.0417 44.6583 14.025 44.975C14.0083 45.2917 14 45.6333 14 46V48H10ZM16.9 16H31.1C31.5333 15.3667 31.9083 14.7333 32.225 14.1C32.5417 13.4667 32.8333 12.7667 33.1 12H14.9C15.1667 12.7333 15.4583 13.425 15.775 14.075C16.0917 14.725 16.4667 15.3667 16.9 16ZM24 23.4C24.6667 22.8333 25.3167 22.2667 25.95 21.7C26.5833 21.1333 27.1833 20.5667 27.75 20H20.25C20.8167 20.5667 21.4167 21.1333 22.05 21.7C22.6833 22.2667 23.3333 22.8333 24 23.4ZM20.25 32H27.75C27.1833 31.4333 26.5833 30.8667 25.95 30.3C25.3167 29.7333 24.6667 29.1667 24 28.6C23.3333 29.1667 22.6833 29.7333 22.05 30.3C21.4167 30.8667 20.8167 31.4333 20.25 32ZM14.9 40H33.1C32.8333 39.2667 32.5417 38.575 32.225 37.925C31.9083 37.275 31.5333 36.6333 31.1 36H16.9C16.4667 36.6333 16.0917 37.2667 15.775 37.9C15.4583 38.5333 15.1667 39.2333 14.9 40Z" fill="#FF9700"/>
</svg>

<svg xmlns="http://www.w3.org/2000/svg" width="48" height="48" fill="none" viewBox="0 0 48 48"><path fill="#ff9700" d="M10 48v-2q0-6.95 2.9-11.275t8-8.725q-5.1-4.4-8-8.725T10 6V4h4v2a20 20 0 0 0 .1 2h19.8q.05-.5.075-.975T34 6V4h4v2q0 6.95-2.9 11.275T27.1 26q5.1 4.4 8 8.725T38 46v2h-4v-2a20 20 0 0 0-.1-2H14.1q-.05.5-.075.975T14 46v2zm6.9-32h14.2a16 16 0 0 0 1.125-1.9q.475-.95.875-2.1H14.9q.4 1.1.875 2.075T16.9 16m7.1 7.4q1-.85 1.95-1.7a45 45 0 0 0 1.8-1.7h-7.5a45 45 0 0 0 1.8 1.7q.95.85 1.95 1.7M20.25 32h7.5a45 45 0 0 0-1.8-1.7A102 102 0 0 0 24 28.6q-1 .85-1.95 1.7a45 45 0 0 0-1.8 1.7m-5.35 8h18.2a22 22 0 0 0-.875-2.075A15 15 0 0 0 31.1 36H16.9a16 16 0 0 0-1.125 1.9A18 18 0 0 0 14.9 40"/></svg>
